X:1
T:Menuetto by Ruppee EHo.108
T:Menuetto by Ruppee EHo.108
T:Ruppee
C:Ruppee
L:1/8
Q:1/4=110
M:3/4
K:G
V:1 treble 
V:1
 G.d.d.d (ed) | G.B.B.B (cB) | dBGB AF | (F4 G2) | egfe(d^c) | daag(gf) | egfe(d^c) | daag(gf) | %8
 ge d2"^tr" ^c2 | (c4 d2) :: DA(dc)"^tr" BA | Bc^cd(ed) | DA(dc)"^tr" BA | Bc^cd(ed) | Gddd (ed) | %15
 .G.B.B.B (.cB) |"^f" d>B G2"^tr" F2 | F4 G2 ::[K:Amin] C2 EGEG | C2 FAFA | C2 FBFB | [Ec]2 z2 z2 | %22
 .g2 .g2 .g2 | .g(c'ba) gg | .g2 .g2 .g2 | .g(c'ba) .g.g | g^ga=gf"^tr"e | e4 d2 :: A^cecec | %29
{e} d^cdcd=c | GBdBdB |{d} cBcdec | d2 d2 e2 | d2 d2 e2 | fefe dc | (c2 B2) z2 | g2 g2 g2 | %37
 gc'ba g2 | g2 g2 g2 | gc'ba g2 | gf e2 d2 | c4 || %42

